X: 1
T:Come Here Son
M:2/4
L:1/16
S:Devil's Box Vol 27 12/1/74
N:As Played by Curley Fox
Z:Transcribed by Frank Maloy
K:A
e2|:"A"efed cAcd|efag fecd|efed cBAc|"E7"BAGB "A"A3e|!
efed cAcd|efag fecd|efed cBAc|1"E7"BaGB "A"A3e:|2BAGB "A"A3A||!
"D"ABA=G FGFE|DEFD =GFEG|FEDE FDCE|DEFD "A7"E2F=G|"D"ABA=G FGFE|!
DEFD =GFEG|FEDF EDCE|DEFD "A"E2A2 EA EA|efed cBAc|"E7"BAGB "A"A3||
